svg/fluentui-system-icons/ic_fluent_tetris_app_20_regular.svg

<svg width="20" height="20" viewBox="0 0 20 20" fill="none" xmlns="http://www.w3.org/2000/svg">
<path d="M7.25 2C6.55964 2 6 2.55964 6 3.25V5.75C6 5.88807 5.88807 6 5.75 6H3.25C2.55964 6 2 6.55964 2 7.25V9.75C2 10.4404 2.55964 11 3.25 11H9.75C10.4404 11 11 10.4404 11 9.75V7.25C11 7.11193 11.1119 7 11.25 7H13.75C14.4404 7 15 6.44036 15 5.75V3.25C15 2.55964 14.4404 2 13.75 2H7.25ZM13.75 6H11V3H13.75C13.8881 3 14 3.11193 14 3.25V5.75C14 5.88807 13.8881 6 13.75 6ZM10.025 7C10.0086 7.08078 10 7.16438 10 7.25V9.75C10 9.88807 9.88807 10 9.75 10H7V7H10.025ZM6 7L6 10H3.25C3.11193 10 3 9.88807 3 9.75V7.25C3 7.11193 3.11193 7 3.25 7H6ZM6.975 6C6.99139 5.91922 7 5.83562 7 5.75V3.25C7 3.11193 7.11193 3 7.25 3L10 3V6H6.975ZM14.25 9C13.5596 9 13 9.55964 13 10.25V12.75C13 12.8881 12.8881 13 12.75 13H6.25C5.55964 13 5 13.5596 5 14.25V16.75C5 17.4404 5.55964 18 6.25 18H16.75C17.4404 18 18 17.4404 18 16.75V10.25C18 9.55964 17.4404 9 16.75 9H14.25ZM13.975 13C13.9914 12.9192 14 12.8356 14 12.75V10.25C14 10.1119 14.1119 10 14.25 10H16.75C16.8881 10 17 10.1119 17 10.25V13H13.975ZM14 14H17V16.75C17 16.8881 16.8881 17 16.75 17H14V14ZM13 14V17H10V14H13ZM9 14V17H6.25C6.11193 17 6 16.8881 6 16.75V14.25C6 14.1119 6.11193 14 6.25 14H9Z" fill="#212121"/>
</svg>

<svg xmlns="http://www.w3.org/2000/svg" width="20" height="20"><path d="M7.25 2C6.56 2 6 2.56 6 3.25v2.5a.25.25 0 0 1-.25.25h-2.5C2.56 6 2 6.56 2 7.25v2.5c0 .69.56 1.25 1.25 1.25h6.5c.69 0 1.25-.56 1.25-1.25v-2.5a.25.25 0 0 1 .25-.25h2.5C14.44 7 15 6.44 15 5.75v-2.5C15 2.56 14.44 2 13.75 2h-6.5Zm6.5 4H11V3h2.75a.25.25 0 0 1 .25.25v2.5a.25.25 0 0 1-.25.25Zm-3.725 1c-.016.08-.025.164-.025.25v2.5a.25.25 0 0 1-.25.25H7V7h3.025ZM6 7v3H3.25A.25.25 0 0 1 3 9.75v-2.5A.25.25 0 0 1 3.25 7H6Zm.975-1c.016-.08.025-.164.025-.25v-2.5A.25.25 0 0 1 7.25 3H10v3H6.975Zm7.275 3c-.69 0-1.25.56-1.25 1.25v2.5a.25.25 0 0 1-.25.25h-6.5C5.56 13 5 13.56 5 14.25v2.5c0 .69.56 1.25 1.25 1.25h10.5c.69 0 1.25-.56 1.25-1.25v-6.5C18 9.56 17.44 9 16.75 9h-2.5Zm-.275 4c.016-.08.025-.164.025-.25v-2.5a.25.25 0 0 1 .25-.25h2.5a.25.25 0 0 1 .25.25V13h-3.025ZM14 14h3v2.75a.25.25 0 0 1-.25.25H14v-3Zm-1 0v3h-3v-3h3Zm-4 0v3H6.25a.25.25 0 0 1-.25-.25v-2.5a.25.25 0 0 1 .25-.25H9Z"/></svg>
